static/assets/img/icons/theme/cooking/kitchen-scale.svg

<svg height="24" viewBox="0 0 24 24" width="24" xmlns="http://www.w3.org/2000/svg"><g fill="none" fill-rule="evenodd"><path d="m0 0h24v24h-24z" opacity="0"/><g fill="#000"><path d="m5 8h14c1.1045695 0 2 .8954305 2 2v10c0 1.1045695-.8954305 2-2 2h-14c-1.1045695 0-2-.8954305-2-2v-10c0-1.1045695.8954305-2 2-2zm7 12c2.7614237 0 5-2.2385763 5-5s-2.2385763-5-5-5c-2.76142375 0-5 2.2385763-5 5s2.23857625 5 5 5zm-.4269387-6.4383681.4269387-2.5616319.4269387 2.5616319c.6204436.1838803 1.0730613.7582669 1.0730613 1.4383681 0 .8284271-.6715729 1.5-1.5 1.5s-1.5-.6715729-1.5-1.5c0-.6801012.4526177-1.2544878 1.0730613-1.4383681z"/><path d="m14 6v2h-4v-2h-2.19722436c-1.12627443 0-2.17803099-.56288303-2.80277564-1.5l-.4817666-.7226499c-.15317623-.22976435-.0910893-.54019902.13867505-.69337525.08213376-.05475584.1786376-.08397485.2773501-.08397485h14.13148295c.2761423 0 .5.22385763.5.5 0 .09871249-.0292191.19521634-.0839749.2773501l-.4817666.7226499c-.6247446.93711697-1.6765012 1.5-2.8027756 1.5z" opacity=".3"/></g></g></svg>

<svg width="24px" height="24px" viewBox="0 0 24 24" version="1.1" xmlns="http://www.w3.org/2000/svg" xmlns:xlink="http://www.w3.org/1999/xlink">
    <title>Icon For Kitchen-scale</title>
    <g stroke="none" stroke-width="1" fill="none" fill-rule="evenodd">
        <rect opacity="0" x="0" y="0" width="24" height="24"></rect>
        <path d="M5,8 L19,8 C20.1045695,8 21,8.8954305 21,10 L21,20 C21,21.1045695 20.1045695,22 19,22 L5,22 C3.8954305,22 3,21.1045695 3,20 L3,10 C3,8.8954305 3.8954305,8 5,8 Z M12,20 C14.7614237,20 17,17.7614237 17,15 C17,12.2385763 14.7614237,10 12,10 C9.23857625,10 7,12.2385763 7,15 C7,17.7614237 9.23857625,20 12,20 Z M11.5730613,13.5616319 L12,11 L12.4269387,13.5616319 C13.0473823,13.7455122 13.5,14.3198988 13.5,15 C13.5,15.8284271 12.8284271,16.5 12,16.5 C11.1715729,16.5 10.5,15.8284271 10.5,15 C10.5,14.3198988 10.9526177,13.7455122 11.5730613,13.5616319 Z" fill="#000000"></path>
        <path d="M14,6 L14,8 L10,8 L10,6 L7.80277564,6 C6.67650121,6 5.62474465,5.43711697 5,4.5 L4.5182334,3.7773501 C4.36505717,3.54758575 4.4271441,3.23715108 4.65690845,3.08397485 C4.73904221,3.02921901 4.83554605,3 4.93425855,3 L19.0657415,3 C19.3418838,3 19.5657415,3.22385763 19.5657415,3.5 C19.5657415,3.59871249 19.5365224,3.69521634 19.4817666,3.7773501 L19,4.5 C18.3752554,5.43711697 17.3234988,6 16.1972244,6 L14,6 Z" fill="#000000" opacity="0.3"></path>
    </g>
</svg>
